X: 4
T: In Continental Mood
C: Andy Cutting
R: waltz
M: 3/4
L: 1/8
K: Dmaj
de|f2 ffef|d2 dfef|d2 dfef|defedc|
B2 BBcd|A2 AAcd|G2 GBcd|e2 eede|
f2 ffef|d2 dfef|d2 dfef|defedc|
B2 BBcd|A2ABcd|e2 fedc|1 d3 Ade|2 d3 AFE:|
D2FDFA|C2FCFA|B,2DB,DF|EEFEDC|
D2FDFA|C2FCFA|B,2DB,DF|E4 DE|
F2 ^AF^Ac|dedcBc|A2 cAce|fgfedc|
B2 BBcd|A2 ABcd|e2 fedc|d4:| 
